; generated by PrusaSlicer 2.3.0+win64 on 2021-07-21 at 19:22:22 UTC

; 

; external perimeters extrusion width = 0.45mm
; perimeters extrusion width = 0.45mm
; infill extrusion width = 0.45mm
; solid infill extrusion width = 0.45mm
; top infill extrusion width = 0.40mm
; support material extrusion width = 0.35mm
; first layer extrusion width = 0.42mm

M73 P0 R45
M73 Q0 S45
M201 X1000 Y1000 Z200 E5000 ; sets maximum accelerations, mm/sec^2
M203 X200 Y200 Z12 E120 ; sets maximum feedrates, mm/sec
M204 P1250 R1250 T1250 ; sets acceleration (P, T) and retract acceleration (R), mm/sec^2
M205 X8.00 Y8.00 Z0.40 E4.50 ; sets the jerk limits, mm/sec
M205 S0 T0 ; sets the minimum extruding and travel feed rate, mm/sec
M107
;TYPE:Custom
M862.3 P "MK3S" ; printer model check
M862.1 P0.4 ; nozzle diameter check
M115 U3.9.2 ; tell printer latest fw version
G90 ; use absolute coordinates
M83 ; extruder relative mode
M104 S215 ; set extruder temp
M140 S60 ; set bed temp
M190 S60 ; wait for bed temp
M109 S215 ; wait for extruder temp
G28 W ; home all without mesh bed level
G80 ; mesh bed leveling
G1 Y-3.0 F1000.0 ; go outside print area
G92 E0.0
G1 X60.0 E9.0 F1000.0 ; intro line
G1 X100.0 E12.5 F1000.0 ; intro line
G92 E0.0
M221 S95

; Don't change E values below. Excessive value can damage the printer.
M907 E430 ; set extruder motor current
G21 ; set units to millimeters
G90 ; use absolute coordinates
M83 ; use relative distances for extrusion
M900 K0.05 ; Filament gcode LA 1.5
M900 K30 ; Filament gcode LA 1.0
;LAYER_CHANGE
;Z:0.2
;HEIGHT:0.2
;BEFORE_LAYER_CHANGE
G92 E0.0
;0.2


G1 E-0.80000 F2100.000
G1 Z0.400 F10800.000
;AFTER_LAYER_CHANGE
;0.2
G1 X92.878 Y79.932
G1 Z0.200
G1 E0.80000 F2100.000
M204 S1000
;TYPE:Skirt
;WIDTH:0.42
G1 F1200.000
G1 X93.710 Y78.989 E0.03941
G1 X94.647 Y78.116 E0.04015
G1 X95.705 Y77.313 E0.04164
G1 X96.807 Y76.640 E0.04050
G1 X98.646 Y75.818 E0.06315
G1 X99.645 Y75.497 E0.03293
G1 X100.967 Y75.211 E0.04241
G1 X102.324 Y75.062 E0.04279
G1 X103.535 Y75.052 E0.03797
G1 X136.439 Y76.100 E1.03219
G1 X138.393 Y76.253 E0.06147
G1 X140.511 Y76.755 E0.06823
G1 X142.265 Y77.462 E0.05930
G1 X143.246 Y77.990 E0.03492
G1 X145.006 Y79.237 E0.06764
G1 X146.369 Y80.548 E0.05930
G1 X147.046 Y81.359 E0.03313
G1 X147.728 Y82.330 E0.03719
G1 X148.666 Y84.063 E0.06181
G1 X149.084 Y85.112 E0.03540
G1 X149.594 Y86.973 E0.06048
G1 X155.188 Y117.708 E0.97951
G1 X155.345 Y119.452 E0.05490
G1 X155.306 Y121.132 E0.05269
G1 X155.103 Y122.694 E0.04941
G1 X154.742 Y124.225 E0.04931
G1 X154.159 Y125.866 E0.05461
G1 X153.416 Y127.393 E0.05323
G1 X152.726 Y128.527 E0.04164
G1 X151.973 Y129.540 E0.03958
G1 X150.743 Y130.909 E0.05769
G1 X149.538 Y131.973 E0.05041
G1 X148.020 Y133.032 E0.05805
G1 X146.841 Y133.691 E0.04233
G1 X145.699 Y134.196 E0.03915
G1 X143.935 Y134.790 E0.05838
G1 X142.254 Y135.138 E0.05383
G1 X140.799 Y135.286 E0.04584
G1 X108.560 Y137.147 E1.01252
G1 X106.926 Y137.060 E0.05132
G1 X105.252 Y136.799 E0.05311
G1 X103.626 Y136.369 E0.05275
G1 X101.947 Y135.726 E0.05635
G1 X100.550 Y135.024 E0.04901
G1 X99.229 Y134.187 E0.04905
G1 X97.896 Y133.148 E0.05298
G1 X96.608 Y131.907 E0.05608
G1 X95.569 Y130.667 E0.05072
G1 X94.575 Y129.199 E0.05561
G1 X93.737 Y127.606 E0.05644
G1 X93.149 Y126.152 E0.04917
M73 P0 R44
G1 X92.706 Y124.644 E0.04929
G1 X92.373 Y122.859 E0.05692
G1 X90.007 Y88.251 E1.08764
G1 X90.131 Y86.287 E0.06171
G1 X90.375 Y85.012 E0.04069
G1 X90.744 Y83.769 E0.04067
G1 X91.218 Y82.602 E0.03950
G1 X91.799 Y81.496 E0.03916
G1 X92.844 Y79.981 E0.05770
; printing object Spindle_top.STL id:3 copy 0
;WIPE_START
G1 F8640.000
G1 X93.710 Y78.989 E-0.30397
G1 X94.647 Y78.116 E-0.29571
G1 X95.200 Y77.696 E-0.16032
;WIPE_END
G1 E-0.04000 F2100.000
G1 Z0.600 F10800.000
G1 X102.030 Y85.443
G1 Z0.200
G1 E0.80000 F2100.000
;TYPE:Perimeter
G1 F1200.000
G1 X107.354 Y85.443 E0.16694
G1 X107.354 Y90.767 E0.16694
G1 X102.030 Y90.767 E0.16694
G1 X102.030 Y85.503 E0.16505
G1 X102.407 Y85.820 F10800.000
;TYPE:External perimeter
G1 F1200.000
G1 X106.977 Y85.820 E0.14329
G1 X106.977 Y90.390 E0.14329
G1 X102.407 Y90.390 E0.14329
G1 X102.407 Y85.880 E0.14141
G1 X102.304 Y85.434 F10800.000
;WIPE_START
G1 F8640.000
G1 X105.698 Y85.837 E-0.76000
;WIPE_END
G1 E-0.04000 F2100.000
G1 Z0.600 F10800.000
G1 X96.374 Y87.318
G1 Z0.200
G1 E0.80000 F2100.000
;TYPE:Perimeter
G1 F1200.000
G1 X93.209 Y87.318 E0.09924
G1 X93.225 Y87.041 E0.00871
G1 X93.410 Y85.930 E0.03532
G1 X93.696 Y84.915 E0.03306
G1 X94.055 Y84.011 E0.03048
G1 X94.618 Y82.948 E0.03772
G1 X95.171 Y82.135 E0.03082
G1 X95.901 Y81.276 E0.03537
G1 X96.663 Y80.556 E0.03284
G1 X97.507 Y79.915 E0.03325
G1 X98.418 Y79.365 E0.03336
G1 X99.374 Y78.921 E0.03305
G1 X100.427 Y78.565 E0.03484
G1 X101.419 Y78.345 E0.03187
G1 X102.595 Y78.220 E0.03706
G1 X103.618 Y78.221 E0.03208
G1 X104.643 Y78.332 E0.03232
G1 X105.712 Y78.566 E0.03432
G1 X106.724 Y78.906 E0.03348
G1 X107.692 Y79.353 E0.03342
G1 X108.636 Y79.921 E0.03455
G1 X109.487 Y80.570 E0.03353
G1 X110.247 Y81.290 E0.03284
G1 X110.939 Y82.103 E0.03347
G1 X111.551 Y83.004 E0.03416
G1 X112.048 Y83.942 E0.03329
G1 X112.450 Y84.950 E0.03402
G1 X112.736 Y85.980 E0.03352
G1 X112.908 Y87.032 E0.03341
G1 X113.010 Y88.892 E0.05843
G1 X116.175 Y88.892 E0.09924
G1 X116.159 Y89.171 E0.00875
G1 X115.992 Y90.198 E0.03263
G1 X115.688 Y91.295 E0.03568
G1 X115.266 Y92.334 E0.03515
G1 X114.805 Y93.200 E0.03078
G1 X114.213 Y94.076 E0.03315
G1 X113.484 Y94.934 E0.03531
G1 X112.674 Y95.692 E0.03479
G1 X111.878 Y96.296 E0.03133
G1 X110.966 Y96.845 E0.03336
G1 X109.965 Y97.308 E0.03460
G1 X108.959 Y97.646 E0.03328
G1 X107.919 Y97.874 E0.03336
G1 X106.868 Y97.989 E0.03317
G1 X105.766 Y97.989 E0.03453
G1 X104.710 Y97.873 E0.03333
G1 X103.673 Y97.645 E0.03330
G1 X102.660 Y97.305 E0.03349
G1 X101.670 Y96.846 E0.03423
G1 X100.748 Y96.290 E0.03374
G1 X99.898 Y95.642 E0.03351
G1 X99.137 Y94.921 E0.03287
G1 X98.432 Y94.091 E0.03413
G1 X97.833 Y93.207 E0.03348
G1 X97.329 Y92.253 E0.03383
G1 X96.934 Y91.261 E0.03349
G1 X96.652 Y90.246 E0.03303
G1 X96.476 Y89.179 E0.03391
G1 X96.378 Y87.378 E0.05654
G1 X96.017 Y87.695 F10800.000
;TYPE:External perimeter
G1 F1200.000
G1 X92.810 Y87.695 E0.10056
G1 X92.850 Y86.999 E0.02187
G1 X93.042 Y85.847 E0.03660
G1 X93.338 Y84.794 E0.03432
G1 X93.712 Y83.853 E0.03174
G1 X94.295 Y82.754 E0.03901
G1 X94.870 Y81.907 E0.03211
G1 X95.627 Y81.016 E0.03666
G1 X96.419 Y80.268 E0.03412
G1 X97.295 Y79.602 E0.03452
G1 X98.241 Y79.032 E0.03463
G1 X99.234 Y78.570 E0.03433
G1 X100.325 Y78.201 E0.03613
G1 X101.358 Y77.972 E0.03317
G1 X102.575 Y77.842 E0.03836
G1 X103.639 Y77.844 E0.03335
G1 X104.703 Y77.960 E0.03359
G1 X105.813 Y78.202 E0.03560
G1 X106.864 Y78.555 E0.03477
G1 X107.869 Y79.019 E0.03471
G1 X108.848 Y79.609 E0.03584
G1 X109.731 Y80.282 E0.03481
G1 X110.521 Y81.030 E0.03411
G1 X111.239 Y81.874 E0.03475
G1 X111.875 Y82.809 E0.03545
G1 X112.391 Y83.783 E0.03457
G1 X112.808 Y84.829 E0.03531
G1 X113.105 Y85.899 E0.03481
G1 X113.284 Y86.991 E0.03468
G1 X113.367 Y88.515 E0.04787
G1 X116.574 Y88.515 E0.10056
M73 Q0 S44
G1 X116.535 Y89.212 E0.02188
G1 X116.361 Y90.279 E0.03389
G1 X116.046 Y91.417 E0.03701
M73 Q1 S44
G1 X115.608 Y92.494 E0.03645
G1 X115.129 Y93.395 E0.03201
G1 X114.514 Y94.304 E0.03442
G1 X113.757 Y95.195 E0.03663
M73 P1 R44
G1 X112.917 Y95.981 E0.03608
G1 X112.089 Y96.608 E0.03257
G1 X111.143 Y97.179 E0.03463
G1 X110.104 Y97.659 E0.03589
G1 X109.059 Y98.010 E0.03457
G1 X107.981 Y98.247 E0.03463
G1 X106.888 Y98.366 E0.03445
G1 X105.746 Y98.366 E0.03583
G1 X104.648 Y98.246 E0.03461
G1 X103.572 Y98.009 E0.03457
G1 X102.520 Y97.655 E0.03477
G1 X101.492 Y97.179 E0.03552
G1 X100.536 Y96.602 E0.03503
G1 X99.654 Y95.929 E0.03478
G1 X98.863 Y95.180 E0.03414
G1 X98.132 Y94.320 E0.03542
G1 X97.510 Y93.402 E0.03477
G1 X96.986 Y92.412 E0.03512
G1 X96.576 Y91.381 E0.03477
G1 X96.283 Y90.327 E0.03430
G1 X96.101 Y89.220 E0.03519
G1 X96.021 Y87.755 E0.04599
G1 X96.004 Y87.296 F10800.000
;WIPE_START
G1 F8640.000
G1 X92.810 Y87.695 E-0.74145
G1 X92.815 Y87.615 E-0.01855
;WIPE_END
G1 E-0.04000 F2100.000
G1 Z0.600 F10800.000
G1 X108.557 Y80.006
G1 Z0.200
G1 E0.80000 F2100.000
;TYPE:Solid infill
;WIDTH:0.42748
G1 F1200.000
G1 X110.071 Y81.519 E0.06844
G1 X110.714 Y82.275 E0.03173
G1 X111.308 Y83.150 E0.03385
G1 X111.479 Y83.471 E0.01161
G1 X107.688 Y79.681 E0.17141
G1 X107.560 Y79.603 E0.00480
G1 X106.645 Y79.181 E0.03222
G1 X111.968 Y84.505 E0.24074
G1 X112.182 Y85.040 E0.01845
G1 X112.267 Y85.347 E0.01017
G1 X105.820 Y78.901 E0.29151
G1 X105.637 Y78.839 E0.00620
G1 X105.097 Y78.721 E0.01766
G1 X112.468 Y86.091 E0.33330
G1 X112.574 Y86.742 E0.02108
G1 X104.426 Y78.593 E0.36849
G1 X103.816 Y78.527 E0.01962
G1 X112.643 Y87.354 E0.39917
G1 X112.674 Y87.930 E0.01842
G1 X103.248 Y78.503 E0.42626
G1 X102.703 Y78.503 E0.01742
G1 X112.885 Y88.685 E0.46044
;WIPE_START
G1 F8640.000
G1 X110.558 Y86.357 E-0.76000
;WIPE_END
G1 E-0.04000 F2100.000
G1 Z0.600 F10800.000
G1 X115.382 Y89.006
G1 Z0.200
G1 E0.80000 F2100.000
G1 F1200.000
G1 X115.827 Y89.451 E0.02015
G1 X115.751 Y89.919 E0.01516
G1 X115.007 Y89.175 E0.03364
G1 X114.464 Y89.175 E0.01739
G1 X115.653 Y90.365 E0.05378
G1 X115.535 Y90.790 E0.01413
G1 X113.920 Y89.175 E0.07304
G1 X113.376 Y89.175 E0.01739
G1 X115.416 Y91.215 E0.09224
G1 X115.258 Y91.602 E0.01335
G1 X102.203 Y78.546 E0.59040
G1 X101.711 Y78.598 E0.01580
G1 X115.101 Y91.988 E0.60552
G1 X114.931 Y92.362 E0.01313
G1 X101.243 Y78.674 E0.61899
G1 X100.797 Y78.772 E0.01459
G1 X107.186 Y85.160 E0.28889
G1 X107.637 Y85.160 E0.01443
G1 X107.637 Y85.612 E0.01443
G1 X114.742 Y92.717 E0.32130
G1 X114.551 Y93.070 E0.01284
G1 X107.637 Y86.156 E0.31268
G1 X107.637 Y86.699 E0.01739
G1 X114.332 Y93.395 E0.30276
G1 X114.113 Y93.719 E0.01252
G1 X107.637 Y87.243 E0.29285
G1 X107.637 Y87.787 E0.01739
G1 X113.880 Y94.031 E0.28234
G1 X113.631 Y94.325 E0.01234
G1 X107.637 Y88.331 E0.27104
G1 X107.637 Y88.875 E0.01739
G1 X113.381 Y94.619 E0.25974
G1 X113.113 Y94.894 E0.01230
G1 X107.637 Y89.419 E0.24761
G1 X107.637 Y89.963 E0.01739
G1 X112.832 Y95.157 E0.23491
G1 X112.551 Y95.420 E0.01230
G1 X107.637 Y90.506 E0.22220
G1 X107.637 Y91.050 E0.01739
G1 X112.247 Y95.661 E0.20849
G1 X111.938 Y95.895 E0.01241
G1 X107.093 Y91.050 E0.21909
G1 X106.549 Y91.050 E0.01739
G1 X111.620 Y96.121 E0.22930
G1 X111.281 Y96.325 E0.01267
G1 X106.005 Y91.050 E0.23855
G1 X105.462 Y91.050 E0.01739
G1 X110.941 Y96.530 E0.24780
G1 X110.580 Y96.712 E0.01295
G1 X104.918 Y91.050 E0.25604
G1 X104.374 Y91.050 E0.01739
G1 X110.208 Y96.884 E0.26382
G1 X109.834 Y97.054 E0.01314
G1 X103.830 Y91.050 E0.27149
G1 X103.286 Y91.050 E0.01739
G1 X109.426 Y97.191 E0.27767
G1 X109.019 Y97.327 E0.01373
G1 X102.573 Y90.881 E0.29153
;WIPE_START
G1 F8640.000
G1 X104.900 Y93.208 E-0.76000
;WIPE_END
G1 E-0.04000 F2100.000
G1 Z0.600 F10800.000
G1 X106.812 Y85.330
G1 Z0.200
G1 E0.80000 F2100.000
G1 F1200.000
G1 X100.365 Y78.884 E0.29151
G1 X99.959 Y79.021 E0.01372
G1 X106.098 Y85.160 E0.27761
G1 X105.554 Y85.160 E0.01739
G1 X99.553 Y79.159 E0.27139
G1 X99.175 Y79.325 E0.01319
G1 X105.010 Y85.160 E0.26387
G1 X104.466 Y85.160 E0.01739
G1 X98.804 Y79.498 E0.25607
G1 X98.443 Y79.681 E0.01294
G1 X103.923 Y85.160 E0.24780
G1 X103.379 Y85.160 E0.01739
G1 X98.104 Y79.885 E0.23855
G1 X97.764 Y80.090 E0.01267
G1 X102.835 Y85.160 E0.22930
G1 X102.291 Y85.160 E0.01739
G1 X97.447 Y80.316 E0.21907
G1 X97.138 Y80.551 E0.01241
G1 X101.747 Y85.161 E0.20846
G1 X101.747 Y85.704 E0.01739
G1 X96.830 Y80.787 E0.22235
G1 X96.551 Y81.052 E0.01230
G1 X101.747 Y86.248 E0.23500
G1 X101.747 Y86.792 E0.01739
G1 X96.271 Y81.316 E0.24765
G1 X96.003 Y81.592 E0.01230
G1 X101.747 Y87.336 E0.25974
G1 X101.747 Y87.880 E0.01739
G1 X95.754 Y81.886 E0.27104
M73 Q2 S44
G1 X95.504 Y82.180 E0.01234
G1 X101.747 Y88.424 E0.28234
M73 P2 R44
G1 X101.747 Y88.967 E0.01739
G1 X95.271 Y82.491 E0.29287
G1 X95.051 Y82.815 E0.01252
G1 X101.747 Y89.511 E0.30282
G1 X101.747 Y90.055 E0.01739
G1 X94.835 Y83.143 E0.31257
G1 X94.647 Y83.499 E0.01286
G1 X101.747 Y90.599 E0.32109
G1 X101.747 Y91.050 E0.01443
G1 X102.198 Y91.050 E0.01443
G1 X108.586 Y97.438 E0.28887
G1 X108.141 Y97.536 E0.01460
G1 X94.458 Y83.854 E0.61872
G1 X94.278 Y84.217 E0.01297
G1 X107.677 Y97.616 E0.60593
G1 X107.187 Y97.670 E0.01577
G1 X94.123 Y84.606 E0.59076
G1 X93.968 Y84.995 E0.01339
G1 X96.008 Y87.035 E0.09225
G1 X95.464 Y87.035 E0.01739
G1 X93.848 Y85.419 E0.07310
G1 X93.728 Y85.843 E0.01410
G1 X94.921 Y87.035 E0.05391
G1 X94.377 Y87.035 E0.01739
G1 X93.636 Y86.295 E0.03349
G1 X93.558 Y86.761 E0.01511
G1 X94.003 Y87.205 E0.02009
;WIPE_START
G1 F8640.000
G1 X93.558 Y86.761 E-0.14505
G1 X93.636 Y86.295 E-0.10912
G1 X94.377 Y87.035 E-0.24186
G1 X94.921 Y87.035 E-0.12558
G1 X94.497 Y86.612 E-0.13840
;WIPE_END
G1 E-0.04000 F2100.000
G1 Z0.600 F10800.000
G1 X96.499 Y87.526
G1 Z0.200
G1 E0.80000 F2100.000
G1 F1200.000
G1 X106.679 Y97.707 E0.46037
G1 X106.136 Y97.707 E0.01739
G1 X96.710 Y88.281 E0.42623
G1 X96.742 Y88.857 E0.01842
G1 X105.568 Y97.683 E0.39915
G1 X104.957 Y97.616 E0.01965
G1 X96.811 Y89.469 E0.36841
G1 X96.918 Y90.121 E0.02111
G1 X104.289 Y97.491 E0.33331
G1 X103.748 Y97.372 E0.01769
G1 X103.564 Y97.310 E0.00623
G1 X97.117 Y90.864 E0.29152
G1 X97.202 Y91.170 E0.01018
G1 X97.415 Y91.705 E0.01841
G1 X102.739 Y97.029 E0.24076
G1 X101.699 Y96.534 E0.03683
G1 X97.907 Y92.741 E0.17152
G1 X98.076 Y93.061 E0.01159
G1 X98.658 Y93.920 E0.03316
G1 X99.315 Y94.693 E0.03244
G1 X100.827 Y96.205 E0.06839
; stop printing object Spindle_top.STL id:3 copy 0
; printing object Spindle.STL id:2 copy 0
;WIPE_START
G1 F8640.000
G1 X99.315 Y94.693 E-0.49386
G1 X98.658 Y93.920 E-0.23423
G1 X98.580 Y93.805 E-0.03191
;WIPE_END
G1 E-0.04000 F2100.000
G1 Z0.600 F10800.000
G1 X134.417 Y96.977
G1 Z0.200
G1 E0.80000 F2100.000
;TYPE:Perimeter
;WIDTH:0.42
G1 F1200.000
G1 X134.431 Y96.648 E0.01032
G1 X134.500 Y96.326 E0.01032
G1 X134.623 Y96.021 E0.01032
G1 X134.773 Y95.778 E0.00896
G1 X135.008 Y95.498 E0.01145
G1 X135.269 Y95.287 E0.01053
G1 X135.556 Y95.127 E0.01032
G1 X135.877 Y95.013 E0.01068
G1 X136.333 Y94.953 E0.01441
G1 X136.829 Y95.012 E0.01567
G1 X137.154 Y95.127 E0.01080
G1 X137.442 Y95.287 E0.01032
G1 X137.698 Y95.494 E0.01032
G1 X137.915 Y95.741 E0.01032
G1 X138.087 Y96.021 E0.01032
G1 X138.210 Y96.326 E0.01032
G1 X138.279 Y96.648 E0.01032
G1 X138.293 Y96.977 E0.01032
G1 X138.252 Y97.303 E0.01032
G1 X138.155 Y97.618 E0.01032
G1 X138.007 Y97.911 E0.01032
G1 X137.811 Y98.176 E0.01032
G1 X137.574 Y98.404 E0.01032
G1 X137.301 Y98.588 E0.01032
G1 X137.001 Y98.723 E0.01032
G1 X136.683 Y98.806 E0.01032
G1 X136.355 Y98.834 E0.01032
G1 X136.027 Y98.806 E0.01032
G1 X135.709 Y98.723 E0.01032
G1 X135.409 Y98.588 E0.01032
G1 X135.136 Y98.404 E0.01032
G1 X134.899 Y98.176 E0.01032
G1 X134.703 Y97.911 E0.01032
G1 X134.555 Y97.618 E0.01032
G1 X134.459 Y97.303 E0.01032
G1 X134.425 Y97.036 E0.00844
G1 X134.799 Y96.988 F10800.000
;TYPE:External perimeter
G1 F1200.000
G1 X134.806 Y96.696 E0.00917
G1 X134.862 Y96.437 E0.00830
G1 X134.961 Y96.191 E0.00830
G1 X135.079 Y95.999 E0.00708
G1 X135.273 Y95.769 E0.00944
G1 X135.481 Y95.601 E0.00838
G1 X135.712 Y95.471 E0.00830
G1 X135.966 Y95.382 E0.00843
G1 X136.336 Y95.333 E0.01170
G1 X136.743 Y95.381 E0.01288
G1 X136.998 Y95.471 E0.00848
G1 X137.230 Y95.601 E0.00830
G1 X137.436 Y95.767 E0.00830
G1 X137.611 Y95.966 E0.00830
G1 X137.749 Y96.191 E0.00830
G1 X137.848 Y96.437 E0.00830
G1 X137.904 Y96.696 E0.00830
G1 X137.915 Y96.961 E0.00830
G1 X137.882 Y97.223 E0.00830
G1 X137.804 Y97.477 E0.00830
G1 X137.685 Y97.713 E0.00830
G1 X137.527 Y97.926 E0.00830
G1 X137.336 Y98.109 E0.00830
G1 X137.117 Y98.257 E0.00830
G1 X136.875 Y98.367 E0.00830
G1 X136.619 Y98.433 E0.00830
G1 X136.355 Y98.456 E0.00830
G1 X136.091 Y98.433 E0.00830
G1 X135.835 Y98.367 E0.00830
G1 X135.594 Y98.257 E0.00830
G1 X135.374 Y98.109 E0.00830
G1 X135.183 Y97.926 E0.00830
G1 X135.026 Y97.713 E0.00830
G1 X134.906 Y97.477 E0.00830
G1 X134.829 Y97.223 E0.00830
G1 X134.806 Y97.048 E0.00555
G1 X134.538 Y96.856 F10800.000
;WIPE_START
G1 F8640.000
G1 X134.806 Y96.696 E-0.08123
G1 X134.862 Y96.437 E-0.06115
