; generated by PrusaSlicer 2.1.0+win64 on 2020-03-03 at 14:43:54 UTC

; 

; external perimeters extrusion width = 0.45mm
; perimeters extrusion width = 0.45mm
; infill extrusion width = 0.45mm
; solid infill extrusion width = 0.45mm
; top infill extrusion width = 0.40mm
; support material extrusion width = 0.35mm
; first layer extrusion width = 0.42mm

M73 P0 R18
M73 Q0 S18
M201 X1000 Y1000 Z1000 E5000 ; sets maximum accelerations, mm/sec^2
M203 X200 Y200 Z12 E120 ; sets maximum feedrates, mm/sec
M204 P1250 R1250 T1250 ; sets acceleration (P, T) and retract acceleration (R), mm/sec^2
M205 X8.00 Y8.00 Z0.40 E1.50 ; sets the jerk limits, mm/sec
M205 S0 T0 ; sets the minimum extruding and travel feed rate, mm/sec
M107
M862.3 P "MK3SMMU2S" ; printer model check
M862.1 P0.4 ; nozzle diameter check
M115 U3.8.1 ; tell printer latest fw version
G90 ; use absolute coordinates
M83 ; extruder relative mode
M104 S215 ; set extruder temp
M140 S60 ; set bed temp
Tx
M190 S60 ; wait for bed temp
M109 S215 ; wait for extruder temp
G28 W ; home all without mesh bed level
G80 ; mesh bed leveling

G21 ; set units to millimeters

;go outside print area
G1 Y-3.0 F1000.0
G1 Z0.4 F1000.0
; select extruder
Tc
; purge line
G1 X55.0 F2000.0
G1 Z0.3 F1000.0
G92 E0.0
G1 X240.0 E25.0 F2200.0
M73 Q0 S18
M73 P0 R18
G1 Y-2.0 F1000.0
G1 X55.0 E25 F1400.0
G1 Z0.20 F1000.0
G1 X5.0 E4.0 F1000.0

M221 S95
G92 E0.0
G21 ; set units to millimeters
G90 ; use absolute coordinates
M83 ; use relative distances for extrusion
M900 K30 ; Filament gcode
;BEFORE_LAYER_CHANGE
G92 E0.0
;0.2


G1 E-0.80000 F2100.00000
G1 Z0.600 F10800.000
;AFTER_LAYER_CHANGE
;0.2
G1 X99.101 Y79.415
G1 Z0.200
G1 E0.80000 F2100.00000
M204 S1000
G1 F1200
G1 X99.714 Y79.003 E0.02315
G1 X100.433 Y78.819 E0.02326
G1 X121.693 Y78.811 E0.66660
G1 X122.341 Y78.911 E0.02055
G1 X122.927 Y79.195 E0.02044
G1 X123.404 Y79.640 E0.02044
G1 X123.730 Y80.208 E0.02055
G1 X128.419 Y96.184 E0.52203
G1 X128.422 Y125.943 E0.93307
G1 X126.121 Y137.523 E0.37019
G1 X125.877 Y138.135 E0.02066
G1 X125.465 Y138.644 E0.02055
G1 X124.830 Y139.049 E0.02360
G1 X124.095 Y139.214 E0.02360
G1 X113.905 Y139.198 E0.31951
G1 X113.308 Y139.033 E0.01942
G1 X112.782 Y138.707 E0.01942
G1 X112.365 Y138.243 E0.01953
G1 X112.098 Y137.685 E0.01942
G1 X98.495 Y90.188 E1.54911
G1 X98.422 Y89.639 E0.01737
G1 X98.440 Y80.719 E0.27965
G1 X98.659 Y80.010 E0.02326
G1 X99.066 Y79.463 E0.02138
G1 F8640
G1 X99.714 Y79.003 E-0.18361
G1 X100.433 Y78.819 E-0.17133
G1 X102.187 Y78.818 E-0.40506
G1 E-0.04000 F2100.00000
G1 Z0.800 F10800.000
G1 X111.923 Y125.662
G1 Z0.200
G1 E0.80000 F2100.00000
G1 F1200
G1 X111.923 Y95.891 E0.93344
G1 X112.677 Y96.278 E0.02657
G1 X112.677 Y125.492 E0.91600
G1 X113.431 Y125.492 E0.02365
G1 X113.431 Y96.664 E0.90388
G1 X114.185 Y97.051 E0.02657
G1 X114.185 Y137.028 E1.25344
G1 X114.940 Y137.028 E0.02365
G1 X114.940 Y97.438 E1.24132
G1 X115.694 Y97.824 E0.02657
G1 X115.694 Y137.028 E1.22920
G1 X116.448 Y137.028 E0.02365
G1 X116.448 Y98.211 E1.21708
G1 X117.202 Y98.597 E0.02657
G1 X117.202 Y137.028 E1.20496
G1 X117.956 Y137.028 E0.02365
G1 X117.956 Y98.984 E1.19283
G1 X118.710 Y99.371 E0.02657
G1 X118.710 Y137.028 E1.18071
G1 X119.464 Y137.028 E0.02365
G1 X119.464 Y99.757 E1.16859
G1 X120.219 Y100.144 E0.02657
G1 X120.219 Y137.028 E1.15647
G1 X120.973 Y137.028 E0.02365
G1 X120.973 Y100.530 E1.14435
G1 X121.184 Y100.639 E0.00744
G1 X121.426 Y100.886 E0.01084
G1 X121.727 Y100.886 E0.00943
G1 X121.727 Y137.028 E1.13321
G1 X122.481 Y137.028 E0.02365
G1 X122.481 Y96.492 E1.27098
G1 X123.235 Y96.492 E0.02365
G1 X123.235 Y137.028 E1.27098
G1 X123.989 Y137.028 E0.02365
G1 X123.989 Y96.492 E1.27098
G1 X124.744 Y96.492 E0.02365
G1 X124.744 Y125.492 E0.90929
G1 X125.498 Y125.492 E0.02365
G1 X125.498 Y96.492 E0.90929
G1 X126.252 Y96.492 E0.02365
G1 X126.252 Y125.662 E0.91462
G1 F8640
G1 X126.252 Y122.371 E-0.76000
G1 E-0.04000 F2100.00000
G1 Z0.800 F10800.000
G1 X121.102 Y99.472
G1 Z0.200
G1 E0.80000 F2100.00000
G1 F1200
G1 X101.198 Y89.269 E0.70133
G1 X101.198 Y81.587 E0.24085
M73 Q6 S17
G1 X121.102 Y81.587 E0.62410
M73 P6 R17
G1 X121.102 Y99.412 E0.55890
G1 X121.479 Y100.089 F10800.000
G1 F1200
G1 X100.821 Y89.499 E0.72790
G1 X100.821 Y81.210 E0.25990
G1 X121.479 Y81.210 E0.64775
G1 X121.479 Y100.029 E0.59007
G1 X121.141 Y99.876 F10800.000
G1 F8640
G1 X118.547 Y98.535 E-0.76000
G1 E-0.04000 F2100.00000
G1 Z0.800 F10800.000
G1 X119.335 Y98.439
G1 Z0.200
G1 E0.80000 F2100.00000
G1 F1200
G1 X102.765 Y81.870 E0.73604
G1 X103.300 Y81.870 E0.01678
G1 X120.040 Y98.610 E0.74363
G1 X120.820 Y99.010 E0.02753
G1 X120.820 Y98.856 E0.00484
G1 X103.834 Y81.870 E0.75454
G1 X104.368 Y81.870 E0.01678
G1 X120.820 Y98.321 E0.73080
G1 X120.820 Y97.787 E0.01678
G1 X104.902 Y81.870 E0.70707
G1 X105.437 Y81.870 E0.01678
G1 X120.820 Y97.253 E0.68334
G1 X120.820 Y96.719 E0.01678
G1 X105.971 Y81.870 E0.65961
G1 X106.505 Y81.870 E0.01678
G1 X120.820 Y96.184 E0.63588
G1 X120.820 Y95.650 E0.01678
G1 X107.039 Y81.870 E0.61215
G1 X107.574 Y81.870 E0.01678
G1 X120.820 Y95.116 E0.58841
G1 X120.820 Y94.582 E0.01678
G1 X108.108 Y81.870 E0.56468
G1 X108.642 Y81.870 E0.01678
G1 X120.820 Y94.047 E0.54095
G1 X120.820 Y93.513 E0.01678
G1 X109.176 Y81.870 E0.51722
G1 X109.711 Y81.870 E0.01678
G1 X120.820 Y92.979 E0.49349
G1 X120.820 Y92.445 E0.01678
G1 X110.245 Y81.870 E0.46975
G1 X110.779 Y81.870 E0.01678
G1 X120.820 Y91.910 E0.44602
G1 X120.820 Y91.376 E0.01678
G1 X111.313 Y81.870 E0.42229
G1 X111.848 Y81.870 E0.01678
G1 X120.820 Y90.842 E0.39856
G1 X120.820 Y90.308 E0.01678
G1 X112.382 Y81.870 E0.37483
G1 X112.916 Y81.870 E0.01678
G1 X120.820 Y89.774 E0.35110
G1 X120.820 Y89.239 E0.01678
G1 X113.450 Y81.870 E0.32736
G1 X113.984 Y81.870 E0.01678
G1 X120.820 Y88.705 E0.30363
G1 X120.820 Y88.171 E0.01678
G1 X114.519 Y81.870 E0.27990
G1 X115.053 Y81.870 E0.01678
G1 X120.820 Y87.637 E0.25617
G1 X120.820 Y87.102 E0.01678
G1 X115.587 Y81.870 E0.23244
G1 X116.121 Y81.870 E0.01678
G1 X120.820 Y86.568 E0.20870
G1 X120.820 Y86.034 E0.01678
G1 X116.656 Y81.870 E0.18497
G1 X117.190 Y81.870 E0.01678
G1 X120.820 Y85.500 E0.16124
G1 X120.820 Y84.965 E0.01678
G1 X117.724 Y81.870 E0.13751
G1 X118.258 Y81.870 E0.01678
G1 X120.820 Y84.431 E0.11378
G1 X120.820 Y83.897 E0.01678
G1 X118.793 Y81.870 E0.09005
G1 X119.327 Y81.870 E0.01678
G1 X120.820 Y83.363 E0.06631
G1 X120.820 Y82.828 E0.01678
G1 X119.861 Y81.870 E0.04258
G1 X120.395 Y81.870 E0.01678
G1 X120.989 Y82.464 E0.02639
G1 F8640
G1 X120.395 Y81.870 E-0.19398
G1 X119.861 Y81.870 E-0.12336
G1 X120.820 Y82.828 E-0.31302
G1 X120.820 Y83.363 E-0.12336
G1 X120.800 Y83.343 E-0.00629
G1 E-0.04000 F2100.00000
G1 Z0.800 F10800.000
G1 X113.854 Y95.630
G1 Z0.200
G1 E0.80000 F2100.00000
G1 F1200
G1 X101.480 Y83.256 E0.54967
G1 X101.480 Y83.790 E0.01678
G1 X112.758 Y95.068 E0.50097
G1 F8640
G1 X110.431 Y92.740 E-0.76000
G1 E-0.04000 F2100.00000
G1 Z0.800 F10800.000
G1 X111.662 Y94.506
G1 Z0.200
G1 E0.80000 F2100.00000
G1 F1200
G1 X101.480 Y84.324 E0.45228
G1 X101.480 Y84.859 E0.01678
G1 X110.566 Y93.944 E0.40359
G1 F8640
G1 X108.238 Y91.617 E-0.76000
G1 E-0.04000 F2100.00000
G1 Z0.800 F10800.000
G1 X109.469 Y93.382
G1 Z0.200
G1 E0.80000 F2100.00000
G1 F1200
G1 X101.480 Y85.393 E0.35489
G1 X101.480 Y85.927 E0.01678
G1 X108.373 Y92.820 E0.30620
G1 F8640
G1 X106.046 Y90.493 E-0.76000
G1 E-0.04000 F2100.00000
G1 Z0.800 F10800.000
G1 X107.277 Y92.258
G1 Z0.200
G1 E0.80000 F2100.00000
G1 F1200
G1 X101.480 Y86.461 E0.25751
G1 X101.480 Y86.996 E0.01678
G1 X106.181 Y91.696 E0.20881
G1 F8640
G1 X103.854 Y89.369 E-0.76000
G1 E-0.04000 F2100.00000
G1 Z0.800 F10800.000
G1 X105.085 Y91.134
G1 Z0.200
G1 E0.80000 F2100.00000
G1 F1200
G1 X101.480 Y87.530 E0.16012
G1 X101.480 Y88.064 E0.01678
G1 X103.989 Y90.572 E0.11143
G1 F8640
G1 X101.661 Y88.245 E-0.76000
G1 E-0.04000 F2100.00000
G1 Z0.800 F10800.000
G1 X102.893 Y90.011
G1 Z0.200
G1 E0.80000 F2100.00000
G1 F1200
G1 X101.311 Y88.429 E0.07027
G1 F8640
G1 X102.893 Y90.011 E-0.51656
G1 E-0.28344 F2100.00000
G1 Z0.800 F10800.000
G1 X114.950 Y96.192
G1 Z0.200
G1 E0.80000 F2100.00000
G1 F1200
G1 X101.480 Y82.722 E0.59836
G1 X101.480 Y82.187 E0.01678
G1 X116.046 Y96.753 E0.64705
G1 F8640
G1 X113.719 Y94.426 E-0.76000
G1 E-0.04000 F2100.00000
G1 Z0.800 F10800.000
G1 X117.143 Y97.315
G1 Z0.200
G1 E0.80000 F2100.00000
G1 F1200
G1 X101.697 Y81.870 E0.68612
G1 X102.231 Y81.870 E0.01678
G1 X118.239 Y97.877 E0.71108
M106 S255
;BEFORE_LAYER_CHANGE
G92 E0.0
;0.4


G1 F8640
G1 X115.911 Y95.550 E-0.76000
G1 E-0.04000 F2100.00000
G1 Z0.800 F10800.000
;AFTER_LAYER_CHANGE
;0.4
G1 X128.419 Y96.184
G1 Z0.400
G1 E0.80000 F2100.00000
G1 F2803
G1 X128.422 Y125.943 E0.93307
G1 X126.121 Y137.523 E0.37019
G1 X125.877 Y138.135 E0.02066
G1 X125.465 Y138.644 E0.02055
G1 X124.830 Y139.049 E0.02360
G1 X124.095 Y139.214 E0.02360
G1 X113.905 Y139.198 E0.31951
G1 X113.308 Y139.033 E0.01942
G1 X112.782 Y138.707 E0.01942
G1 X112.365 Y138.243 E0.01953
G1 X112.098 Y137.685 E0.01942
G1 X98.495 Y90.188 E1.54911
G1 X98.422 Y89.639 E0.01737
G1 X98.440 Y80.719 E0.27965
G1 X98.659 Y80.010 E0.02326
G1 X99.101 Y79.415 E0.02326
G1 X99.714 Y79.003 E0.02315
G1 X100.433 Y78.819 E0.02326
G1 X121.693 Y78.811 E0.66660
G1 X122.341 Y78.911 E0.02055
G1 X122.927 Y79.195 E0.02044
G1 X123.404 Y79.640 E0.02044
G1 X123.730 Y80.208 E0.02055
G1 X128.402 Y96.126 E0.52015
G1 F8640
G1 X128.404 Y99.418 E-0.76000
G1 E-0.04000 F2100.00000
G1 Z1.000 F10800.000
G1 X121.057 Y99.399
G1 Z0.400
G1 E0.80000 F2100.00000
M204 S800
G1 F2803
G1 X101.243 Y89.241 E0.75370
G1 X101.243 Y81.632 E0.25756
G1 X121.057 Y81.632 E0.67071
G1 X121.057 Y99.339 E0.59935
M204 S1000
G1 X121.464 Y100.065 F10800.000
M204 S800
G1 F2100
G1 X100.836 Y89.490 E0.78467
G1 X100.836 Y81.225 E0.27976
G1 X121.464 Y81.225 E0.69827
G1 X121.464 Y100.005 E0.63568
M204 S1000
G1 X121.126 Y99.852 F10800.000
G1 F8640
G1 X118.532 Y98.510 E-0.76000
G1 E-0.04000 F2100.00000
G1 Z1.000 F10800.000
G1 X120.344 Y98.896
G1 Z0.400
G1 E0.80000 F2100.00000
M204 S1250
G1 F2803
G1 X120.752 Y98.488 E0.01962
G1 X120.752 Y97.910 E0.01968
G1 X120.098 Y98.564 E0.03147
G1 X119.715 Y98.368 E0.01462
G1 X120.752 Y97.331 E0.04988
G1 X120.752 Y96.752 E0.01968
G1 X119.333 Y98.172 E0.06828
G1 X118.950 Y97.976 E0.01462
G1 X120.752 Y96.174 E0.08668
G1 X120.752 Y95.595 E0.01968
G1 X118.568 Y97.780 E0.10508
G1 X118.185 Y97.583 E0.01462
G1 X120.752 Y95.017 E0.12349
G1 X120.752 Y94.438 E0.01968
G1 X117.803 Y97.387 E0.14189
G1 X117.420 Y97.191 E0.01462
G1 X120.752 Y93.860 E0.16029
G1 X120.752 Y93.281 E0.01968
G1 X117.038 Y96.995 E0.17870
G1 X116.655 Y96.799 E0.01462
G1 X120.752 Y92.702 E0.19710
G1 X120.752 Y92.124 E0.01968
G1 X116.273 Y96.603 E0.21550
G1 X115.890 Y96.407 E0.01462
G1 X120.752 Y91.545 E0.23390
G1 X120.752 Y90.967 E0.01968
G1 X115.508 Y96.211 E0.25231
G1 X115.125 Y96.015 E0.01462
G1 X120.752 Y90.388 E0.27071
G1 X120.752 Y89.809 E0.01968
G1 X114.743 Y95.819 E0.28911
G1 X114.360 Y95.623 E0.01462
G1 X120.752 Y89.231 E0.30751
G1 X120.752 Y88.652 E0.01968
G1 X113.978 Y95.426 E0.32592
G1 X113.595 Y95.230 E0.01462
G1 X120.752 Y88.074 E0.34432
G1 X120.752 Y87.495 E0.01968
G1 X113.213 Y95.034 E0.36272
G1 X112.830 Y94.838 E0.01462
G1 X120.752 Y86.916 E0.38113
G1 X120.752 Y86.338 E0.01968
G1 X112.448 Y94.642 E0.39953
G1 X112.065 Y94.446 E0.01462
G1 X120.752 Y85.759 E0.41793
G1 X120.752 Y85.181 E0.01968
G1 X111.683 Y94.250 E0.43633
G1 X111.300 Y94.054 E0.01462
G1 X120.752 Y84.602 E0.45474
G1 X120.752 Y84.023 E0.01968
G1 X110.918 Y93.858 E0.47314
G1 X110.535 Y93.662 E0.01462
G1 X120.752 Y83.445 E0.49154
G1 X120.752 Y82.866 E0.01968
G1 X110.153 Y93.466 E0.50995
G1 X109.770 Y93.270 E0.01462
G1 X120.752 Y82.288 E0.52835
G1 X120.752 Y81.937 E0.01191
G1 X120.524 Y81.937 E0.00777
G1 X109.388 Y93.073 E0.53576
G1 X109.005 Y92.877 E0.01462
G1 X119.945 Y81.937 E0.52633
G1 X119.367 Y81.937 E0.01968
G1 X108.623 Y92.681 E0.51690
G1 X108.240 Y92.485 E0.01462
G1 X118.788 Y81.937 E0.50746
G1 X118.209 Y81.937 E0.01968
G1 X107.858 Y92.289 E0.49803
G1 X107.475 Y92.093 E0.01462
G1 X117.631 Y81.937 E0.48859
G1 X117.052 Y81.937 E0.01968
G1 X107.093 Y91.897 E0.47916
M73 Q11 S16
G1 X106.710 Y91.701 E0.01462
G1 X116.474 Y81.937 E0.46973
G1 X115.895 Y81.937 E0.01968
G1 X106.328 Y91.505 E0.46029
G1 X105.945 Y91.309 E0.01462
G1 X115.316 Y81.937 E0.45086
M73 P11 R16
G1 X114.738 Y81.937 E0.01968
G1 X105.563 Y91.113 E0.44143
G1 X105.180 Y90.917 E0.01462
G1 X114.159 Y81.937 E0.43199
G1 X113.581 Y81.937 E0.01968
G1 X104.797 Y90.720 E0.42256
G1 X104.415 Y90.524 E0.01462
G1 X113.002 Y81.937 E0.41312
G1 X112.423 Y81.937 E0.01968
G1 X104.032 Y90.328 E0.40369
G1 X103.650 Y90.132 E0.01462
G1 X111.845 Y81.937 E0.39426
G1 X111.266 Y81.937 E0.01968
G1 X103.267 Y89.936 E0.38482
G1 X102.885 Y89.740 E0.01462
G1 X110.688 Y81.937 E0.37539
G1 X110.109 Y81.937 E0.01968
G1 X102.502 Y89.544 E0.36596
G1 X102.120 Y89.348 E0.01462
G1 X109.530 Y81.937 E0.35652
G1 X108.952 Y81.937 E0.01968
G1 X101.737 Y89.152 E0.34709
G1 X101.548 Y89.055 E0.00725
G1 X101.548 Y88.763 E0.00993
G1 X108.373 Y81.937 E0.32837
G1 X107.795 Y81.937 E0.01968
G1 X101.548 Y88.184 E0.30053
G1 X101.548 Y87.606 E0.01968
G1 X107.216 Y81.937 E0.27270
G1 X106.637 Y81.937 E0.01968
G1 X101.548 Y87.027 E0.24486
G1 X101.548 Y86.448 E0.01968
G1 X106.059 Y81.937 E0.21702
G1 X105.480 Y81.937 E0.01968
G1 X101.548 Y85.870 E0.18919
G1 X101.548 Y85.291 E0.01968
G1 X104.902 Y81.937 E0.16135
G1 X104.323 Y81.937 E0.01968
G1 X101.548 Y84.713 E0.13351
G1 X101.548 Y84.134 E0.01968
G1 X103.744 Y81.937 E0.10568
G1 X103.166 Y81.937 E0.01968
G1 X101.548 Y83.555 E0.07784
G1 X101.548 Y82.977 E0.01968
G1 X102.587 Y81.937 E0.05001
G1 X102.009 Y81.937 E0.01968
G1 X101.365 Y82.581 E0.03098
M204 S1000
;BEFORE_LAYER_CHANGE
G92 E0.0
;0.418355


G1 F8640
G1 X102.009 Y81.937 E-0.21029
G1 X102.587 Y81.937 E-0.13360
G1 X101.548 Y82.977 E-0.33941
G1 X101.548 Y83.309 E-0.07671
G1 E-0.04000 F2100.00000
G1 Z1.000 F10800.000
;AFTER_LAYER_CHANGE
;0.418355
G1 X114.757 Y97.150
G1 Z0.418
G1 E0.80000 F2100.00000
G1 F900
G1 X114.453 Y97.150 E0.00837
G1 X114.453 Y99.457 E0.06349
G1 X118.955 Y99.457 E0.12389
G1 X121.219 Y100.617 E0.07002
G1 X121.441 Y100.851 E0.00886
G1 X121.846 Y100.851 E0.01116
G1 X122.068 Y100.629 E0.00863
G1 X122.068 Y99.457 E0.03226
G1 X123.681 Y99.457 E0.04440
G1 X123.681 Y101.764 E0.06349
G1 X114.453 Y101.764 E0.25396
G1 X114.453 Y104.071 E0.06349
G1 X123.681 Y104.071 E0.25396
G1 X123.681 Y106.378 E0.06349
G1 X114.453 Y106.378 E0.25396
G1 X114.453 Y108.685 E0.06349
G1 X123.681 Y108.685 E0.25396
G1 X123.681 Y110.992 E0.06349
G1 X114.453 Y110.992 E0.25396
G1 X114.453 Y113.299 E0.06349
G1 X123.681 Y113.299 E0.25396
G1 X123.681 Y115.606 E0.06349
G1 X114.453 Y115.606 E0.25396
G1 X114.453 Y117.913 E0.06349
G1 X123.681 Y117.913 E0.25396
G1 X123.681 Y120.220 E0.06349
G1 X114.453 Y120.220 E0.25396
G1 X114.453 Y122.527 E0.06349
G1 X123.681 Y122.527 E0.25396
G1 X121.374 Y122.527 E0.06349
G1 X121.374 Y124.835 E0.06349
G1 X116.760 Y124.835 E0.12698
G1 X116.760 Y127.142 E0.06349
G1 X121.374 Y127.142 E0.12698
G1 X121.374 Y129.449 E0.06349
G1 X116.760 Y129.449 E0.12698
G1 X116.760 Y131.756 E0.06349
G1 X121.374 Y131.756 E0.12698
G1 X121.374 Y134.063 E0.06349
G1 X116.622 Y134.063 E0.13078
;BEFORE_LAYER_CHANGE
G92 E0.0
;0.6


G1 F8640
G1 X119.913 Y134.063 E-0.76000
G1 E-0.04000 F2100.00000
G1 Z1.018 F10800.000
;AFTER_LAYER_CHANGE
;0.6
G1 X124.830 Y139.049
G1 Z0.600
G1 E0.80000 F2100.00000
G1 F2914
G1 X124.095 Y139.214 E0.02360
G1 X113.905 Y139.198 E0.31951
G1 X113.308 Y139.033 E0.01942
G1 X112.782 Y138.707 E0.01942
G1 X112.365 Y138.243 E0.01953
G1 X112.098 Y137.685 E0.01942
G1 X98.495 Y90.188 E1.54911
G1 X98.422 Y89.639 E0.01737
G1 X98.440 Y80.719 E0.27965
G1 X98.659 Y80.010 E0.02326
G1 X99.101 Y79.415 E0.02326
G1 X99.714 Y79.003 E0.02315
G1 X100.433 Y78.819 E0.02326
G1 X121.693 Y78.811 E0.66660
G1 X122.341 Y78.911 E0.02055
G1 X122.927 Y79.195 E0.02044
G1 X123.404 Y79.640 E0.02044
G1 X123.730 Y80.208 E0.02055
G1 X128.419 Y96.184 E0.52203
G1 X128.422 Y125.943 E0.93307
G1 X126.121 Y137.523 E0.37019
G1 X125.877 Y138.135 E0.02066
G1 X125.465 Y138.644 E0.02055
